X:530
T: Dancing Master's Reel
T: R\'il an Mh\'aistir Rince
S: B.Breathnach: "Ceol Rince na hEireann" II/126
Z: B.Black
L: 1/8
M: 2/4
R: polka
K: G
DE/G/ AB/A/|GE GE|DE/G/ AB/A/|GE D2 :|
de/d/ cA|GA cd|ed c(3A/B/A/|GE D2 :|

